X: 35586
T: S McGee Buys The Farm
R: jig
M: 6/8
K: Dminor
|:"Dm"dDc AFD|"Bb"B,FA e"Gm"dc|cde fde|cdA GFE|
"Dm"DdD cDA|"Bb"B,FA e"C"dc|cde dcA|FGA GFD:|
K:D
"G"ABB Bcd|BAF "D"afb|aef eed|cde fae|
"G"fdf "D/F#"cd"G"LB-|Bcd "D/F#"BA"G"LF-|FAB AFD|"A"CEA edc|
"G"dBA Bcd|BAF "D"afb|aef eed|cde fae|
"G"fdf "D/F#"cd"G"LB-|Bcd "D/F#"BA"G"LF-|FAB AFD|"A"CEA eAA|

